X: 58
T:Sheffield Hornpipe
% Nottingham Music Database
S:Lesley Dolman
M:4/4
L:1/8
R:Hornpipe
K:D
P:A
FE|"D"D2FA d2dc|"G"BGBd "D"A2Ad|"A"c2ce "D"d2df|"Em"ecdB "A7"AFGE|
"D"D2FA d2dc|"G"BGBd "D"A2Ad|"G"BGBd "A7"cAce|"D"d2f2 d2:|
P:B
cd|"A"ecAA A2de|"D"fdAA A2ef|"G"gefd ecdf|"Em"ecdB "A7"AFGE|
"D"D2FA d2dc|"G"BGBd "D"A2Ad|"G"BGBd "A7"cAce|"D"d2f2 d2:|<end>
<start>
